assets/Zzz/Flat/zzz_flat.svg

<svg width="32" height="32" viewBox="0 0 32 32" fill="none" xmlns="http://www.w3.org/2000/svg">
<path d="M27.6624 8.55204C28.0459 9.0222 28.1083 9.67704 27.8207 10.2112L22.3751 20.3246L28.1746 19.0358C28.9833 18.8561 29.7846 19.366 29.9643 20.1747C30.144 20.9834 29.6341 21.7846 28.8254 21.9643L19.8254 23.9643C19.2525 24.0917 18.658 23.8732 18.3038 23.4052C17.9497 22.9372 17.9011 22.3056 18.1793 21.7889L23.4624 11.9774L16.931 13.9368C16.1375 14.1749 15.3013 13.7246 15.0633 12.9311C14.8252 12.1376 15.2755 11.3014 16.069 11.0633L26.069 8.06333C26.6501 7.889 27.279 8.08188 27.6624 8.55204Z" fill="#00A6ED"/>
<path d="M9 19C9 18.4477 9.44772 18 10 18H17C17.3924 18 17.7485 18.2295 17.9106 18.5868C18.0728 18.9441 18.011 19.3632 17.7526 19.6585L12.2038 26H17C17.5523 26 18 26.4477 18 27C18 27.5523 17.5523 28 17 28H10C9.60762 28 9.2515 27.7705 9.08937 27.4132C8.92723 27.0559 8.98904 26.6368 9.24742 26.3415L14.7962 20H10C9.44772 20 9 19.5523 9 19Z" fill="#83CBFF"/>
<path d="M3.04217 21.7127C3.20087 21.1837 3.75835 20.8835 4.28734 21.0422L9.28734 22.5422C9.64882 22.6506 9.91846 22.9533 9.98454 23.3249C10.0506 23.6965 9.90191 24.0736 9.6 24.3L5.38926 27.4581L8.19611 28.0194C8.73767 28.1278 9.08889 28.6546 8.98058 29.1961C8.87226 29.7377 8.34544 30.0889 7.80388 29.9806L2.80388 28.9806C2.41716 28.9033 2.11201 28.6058 2.02477 28.2212C1.93753 27.8366 2.08449 27.4366 2.4 27.2L6.8152 23.8886L3.71265 22.9578C3.18365 22.7991 2.88347 22.2417 3.04217 21.7127Z" fill="#AEDDFF"/>
</svg>

<svg xmlns="http://www.w3.org/2000/svg" width="32" height="32" fill="none"><path fill="#00A6ED" d="M27.662 8.552a1.5 1.5 0 0 1 .159 1.66l-5.446 10.113 5.8-1.29a1.5 1.5 0 0 1 .65 2.93l-9 2a1.5 1.5 0 0 1-1.646-2.176l5.283-9.812-6.531 1.96a1.5 1.5 0 1 1-.862-2.874l10-3a1.5 1.5 0 0 1 1.593.489Z"/><path fill="#83CBFF" d="M9 19a1 1 0 0 1 1-1h7a1 1 0 0 1 .753 1.659L12.203 26H17a1 1 0 1 1 0 2h-7a1 1 0 0 1-.753-1.659L14.797 20H10a1 1 0 0 1-1-1Z"/><path fill="#AEDDFF" d="M3.042 21.713a1 1 0 0 1 1.245-.67l5 1.5A1 1 0 0 1 9.6 24.3l-4.21 3.158 2.806.561a1 1 0 0 1-.392 1.962l-5-1A1 1 0 0 1 2.4 27.2l4.415-3.311-3.102-.931a1 1 0 0 1-.67-1.245Z"/></svg>
